X: 463
T: Sibao langong
%%abc-version 2.0
%%abcx-abcm2ps-target-version 5.9.1 (29 Sep 2008)
%%abc-creator hum2abc beta
%%abcx-conversion-date 2013/10/02 07:52:30
%%abc-edited-by Helmut Schaffrath
%%humdrum-veritas 847142803
%%humdrum-veritas-data 3861959127
%%continueall 1
%%barnumbers 0
L: 1/8
M: 2/4
K: A
e2a b [I:setbarnb 1]| 
f e c B | 
b3e' | 
c' ba2 | 
b f' e' d' | 
b d' a f | 
e a d B | 
e4 | 
a2f e | 
b2e'2 | 
a f b e' | 
f e d B | 
e c' b a | 
e a e d | 
B3A | 
B4 |]  



